assets/img/braze_icons/translate-01.svg

<svg fill="none" height="24" viewBox="0 0 24 24" width="24" xmlns="http://www.w3.org/2000/svg"><g fill="#801ed7"><path d="m8.99998 3c0-.55228-.44772-1-1-1-.55229 0-1 .44772-1 1v1h-5c-.55229 0-1.000003.44772-1.000003 1s.447713 1 1.000003 1h8.27912c-.46536 1.9747-1.24752 3.79672-2.30305 5.413-.88934-.8348-1.64355-1.82855-2.05492-2.80219-.21494-.50874-.80161-.74691-1.31035-.53197-.50874.21495-.7469.80161-.53196 1.31035.55374 1.31061 1.54179 2.59181 2.69597 3.63631-1.42239 1.681-3.18415 3.0673-5.21985 4.079-.49457.2458-.696262.846-.45048 1.3405.24579.4946.84597.6963 1.34055.4505 2.3161-1.151 4.31388-2.7346 5.91855-4.6517.40678.26.81875.4851 1.2266.6684.50374.2263 1.09564.0014 1.32194-.5024.2264-.5038.0015-1.0956-.5023-1.322-.28-.1257-.56336-.2775-.84522-.4508 1.30872-1.9674 2.25072-4.20733 2.76362-6.637h1.6718c.5523 0 1-.44772 1-1s-.4477-1-1-1h-2.4835c-.0118-.00021-.0237-.00021-.0354 0h-2.48112z"/><path clip-rule="evenodd" d="m17.1523 9.30806c-.4121-.199-.8925-.199-1.3046 0-.3585.17311-.5528.47472-.6494.63703-.1011.17011-.2049.38711-.3068.60041l-2.8716 6.0042c-.0065.0128-.0127.0257-.0186.0388l-1.9034 3.98c-.23833.4982-.0276 1.0953.4706 1.3336.4983.2383 1.0953.0275 1.3336-.4707l1.6412-3.4315h5.9134l1.6412 3.4315c.2382.4982.8353.709 1.3335.4707.4983-.2383.709-.8354.4707-1.3336l-1.9034-3.98c-.006-.0131-.0121-.026-.0186-.0388l-2.8716-6.0042c-.1019-.2132-.2057-.4304-.3069-.60041-.0965-.16231-.2909-.46392-.6493-.63703zm-.6523 2.50964 2.0002 4.1822h-4.0004z" fill-rule="evenodd"/></g></svg>

<svg width="24" height="24" viewBox="0 0 24 24" fill="none" xmlns="http://www.w3.org/2000/svg">
<path d="M8.99998 3C8.99998 2.44772 8.55226 2 7.99998 2C7.44769 2 6.99998 2.44772 6.99998 3V4H1.99998C1.44769 4 0.999977 4.44772 0.999977 5C0.999977 5.55228 1.44769 6 1.99998 6H10.2791C9.81374 7.9747 9.03158 9.79672 7.97605 11.413C7.08671 10.5782 6.3325 9.58445 5.92113 8.61081C5.70619 8.10207 5.11952 7.8639 4.61078 8.07884C4.10204 8.29379 3.86388 8.88045 4.07882 9.38919C4.63256 10.6998 5.62061 11.981 6.77479 13.0255C5.3524 14.7065 3.59064 16.0928 1.55494 17.1045C1.06037 17.3503 0.858678 17.9505 1.10446 18.445C1.35025 18.9396 1.95043 19.1413 2.44501 18.8955C4.76111 17.7445 6.75889 16.1609 8.36356 14.2438C8.77034 14.5038 9.18231 14.7289 9.59016 14.9122C10.0939 15.1385 10.6858 14.9136 10.9121 14.4098C11.1385 13.906 10.9136 13.3142 10.4098 13.0878C10.1298 12.9621 9.84644 12.8103 9.56458 12.637C10.8733 10.6696 11.8153 8.42967 12.3282 6H14C14.5523 6 15 5.55228 15 5C15 4.44772 14.5523 4 14 4H11.5165C11.5047 3.99979 11.4928 3.99979 11.4811 4H8.99998V3Z" fill="#801ED7"/>
<path fill-rule="evenodd" clip-rule="evenodd" d="M17.1523 9.30806C16.7402 9.10906 16.2598 9.10906 15.8477 9.30806C15.4892 9.48117 15.2949 9.78278 15.1983 9.94509C15.0972 10.1152 14.9934 10.3322 14.8915 10.5455L12.0199 16.5497C12.0134 16.5625 12.0072 16.5754 12.0013 16.5885L10.0979 20.5685C9.85957 21.0667 10.0703 21.6638 10.5685 21.9021C11.0668 22.1404 11.6638 21.9296 11.9021 21.4314L13.5433 17.9999H19.4567L21.0979 21.4314C21.3361 21.9296 21.9332 22.1404 22.4314 21.9021C22.9297 21.6638 23.1404 21.0667 22.9021 20.5685L20.9987 16.5885C20.9927 16.5754 20.9866 16.5625 20.9801 16.5497L18.1085 10.5455C18.0066 10.3323 17.9028 10.1151 17.8016 9.94509C17.7051 9.78278 17.5107 9.48117 17.1523 9.30806ZM16.5 11.8177L18.5002 15.9999H14.4998L16.5 11.8177Z" fill="#801ED7"/>
</svg>
